X: 19
T: Junior's Waltz
C: Junior Daugherty \251 1982
M: 3/4
L: 1/8
K: A
CB, | \
"A"A,2 C3 A, | "E7"B,2 D3 B, | "A"C2 E2 Ae | "A7"c4 cB |\
"D"A4 GA | "E7"G4 F2 | "A"E4- EF | "E"E3 D CB, |
"A"A,2 C3 A, | "E7"B,2 D3 B, | "A"C2 E2 Ae | "F#m"c4 c=c |\
"B7"B3 c BA | F2 G2 A2 | "E"B4- Bc | "E7"B4 CB, ||
"A"A,2 C3 A, | "E7"B,2 D3 B, | "A"C2 E2 Ae | "A7"c4 cB |\
"D"A4 GA | "E7" G4 F2 | "A"E4 F2 | E2 C2 E2 "^I"|
"D"F4 FG | "B7/D#"A4 (3ABc | "A"c3 B AF | "F#7"E2 C2 E2 |\
"B7"F3 =F ^F=G | "E7"^G4 (3c=cB | "A"A6- | A4 |]


